X:68
T:Micho Russell's Slide
T:Callaghan's Slide
R:slide
D:Dervish
Z:id:hn-slide-68
M:6/8
L:1/8
K:D
~A3 ~A2F | ABA F2E | DFA B2A | B2A F2A |
dcd a2g | f2d B2A | BdA BAB |1 d3 d2B :|2 d3 d2A ||
|: dcd a2g | f2d B2A | BdA B2A | B2A F2A |
dcd a2g | f2d B2A | BdA BAB |1 d3 d2A :|2 d3 d2B ||

